bin/file-parsers/markdown-message-file-parser/html-template/assets/bg.svg

<svg width="595" height="842" fill="none" xmlns="http://www.w3.org/2000/svg">
<path fill-rule="evenodd" clip-rule="evenodd" d="M594.5 643C717.383 643 817 543.383 817 420.5S717.383 198 594.5 198C471.616 198 372 297.617 372 420.5S471.616 643 594.5 643Zm69.412-341.35c3.379-12.002-8.268-19.099-18.904-11.52L496.523 395.909c-11.535 8.218-9.721 24.591 2.726 24.591h39.1v-.303h76.204l-62.092 21.909-27.373 97.245c-3.379 12.001 8.267 19.098 18.905 11.519l148.484-105.778c11.535-8.218 9.72-24.592-2.726-24.592h-59.294l33.455-118.85Z" fill="#f8a719" fill-opacity=".06"/>
</svg>

<svg width="595" height="842" viewBox="0 0 595 842" fill="none" xmlns="http://www.w3.org/2000/svg">
<g clip-path="url(#clip0_1_2)">
<rect width="595" height="842" fill="white"/>
<path fill-rule="evenodd" clip-rule="evenodd" d="M594.5 643C717.383 643 817 543.383 817 420.5C817 297.617 717.383 198 594.5 198C471.616 198 372 297.617 372 420.5C372 543.383 471.616 643 594.5 643ZM663.912 301.65C667.291 289.648 655.644 282.551 645.008 290.13L496.523 395.909C484.988 404.127 486.802 420.5 499.249 420.5H538.349V420.197H614.553L552.461 442.106L525.088 539.351C521.709 551.352 533.355 558.449 543.993 550.87L692.477 445.092C704.012 436.874 702.197 420.5 689.751 420.5H630.457L663.912 301.65Z" fill="black" fill-opacity="0.06"/>
</g>
<defs>
<clipPath id="clip0_1_2">
<rect width="595" height="842" fill="white"/>
</clipPath>
</defs>
</svg>
